src/module-aos_invoices.svg

<?xml version="1.0" encoding="UTF-8"?>
<svg xmlns="http://www.w3.org/2000/svg" xmlns:xlink="http://www.w3.org/1999/xlink" width="1024pt" height="1024pt" viewBox="0 0 1024 1024" version="1.1">
<g id="surface1">
<path style="fill:none;stroke-width:3.999996;stroke-linecap:butt;stroke-linejoin:miter;stroke:rgb(0%,0%,0%);stroke-opacity:1;stroke-miterlimit:4;" d="M 0.000047355 0.000031346 L 19.199953 0.000031346 L 19.199953 23.999969 L 0.000047355 23.999969 Z M 0.000047355 0.000031346 " transform="matrix(35.714286,0,0,35.714286,169.14284,83.428568)"/>
<path style=" stroke:none;fill-rule:evenodd;fill:rgb(0%,0%,0%);fill-opacity:1;" d="M 354.285156 526.714844 C 354.285156 519.097656 356.714844 512.476562 361.570312 506.855469 C 366.429688 501.238281 373.714844 498.429688 383.429688 498.429688 L 407.429688 498.429688 L 407.429688 436.714844 C 407.429688 418.617188 410.191406 401.429688 415.714844 385.144531 C 421.238281 368.855469 429.667969 354.523438 441 342.144531 C 452.332031 329.761719 466.523438 319.902344 483.570312 312.570312 C 500.621094 305.238281 520.761719 301.570312 544 301.570312 C 559.429688 301.570312 573.382812 303.535156 585.855469 307.429688 C 598.332031 311.332031 609.476562 316.761719 619.285156 323.714844 C 629.09375 330.667969 637.714844 338.855469 645.144531 348.285156 C 652.570312 357.714844 659.046875 367.855469 664.570312 378.714844 L 629.144531 401 C 621.144531 405.1875 613.382812 407.046875 605.855469 406.570312 C 598.332031 406.105469 591.429688 402.523438 585.144531 395.855469 C 577.90625 388.429688 571.332031 382.902344 565.429688 379.285156 C 559.523438 375.667969 552.382812 373.855469 544 373.855469 C 528.570312 373.855469 517.09375 379.238281 509.570312 390 C 502.046875 400.761719 498.285156 416.238281 498.285156 436.429688 L 498.285156 498.429688 L 606.855469 498.429688 L 606.855469 532.144531 C 606.855469 535 606.238281 537.714844 605 540.285156 C 603.761719 542.855469 602.046875 545.1875 599.855469 547.285156 C 597.667969 549.394531 595.09375 551.046875 592.144531 552.285156 C 589.191406 553.535156 585.90625 554.144531 582.285156 554.144531 L 498.285156 554.144531 L 498.285156 598.714844 C 498.285156 610.144531 496.144531 620.476562 491.855469 629.714844 C 487.570312 638.953125 481.808594 647.570312 474.570312 655.570312 C 483.144531 653.679688 491.714844 652.179688 500.285156 651.144531 C 508.855469 650.105469 517.523438 649.570312 526.285156 649.570312 L 669.714844 649.570312 L 669.714844 685.855469 C 669.714844 690.046875 668.808594 694.332031 667 698.714844 C 665.191406 703.097656 662.667969 707.046875 659.429688 710.570312 C 656.191406 714.105469 652.238281 716.953125 647.570312 719.144531 C 642.90625 721.320312 637.714844 722.429688 632 722.429688 L 359.429688 722.429688 L 359.429688 669.285156 C 365.714844 668.144531 371.761719 666.320312 377.570312 663.855469 C 383.382812 661.394531 388.476562 658.238281 392.855469 654.429688 C 397.238281 650.617188 400.761719 646.046875 403.429688 640.714844 C 406.09375 635.382812 407.429688 629.1875 407.429688 622.144531 L 407.429688 554.144531 L 354.285156 554.144531 Z M 354.285156 526.714844 "/>
</g>
</svg>

<?xml version="1.0" encoding="UTF-8" standalone="no"?>
<svg
   xmlns:dc="http://purl.org/dc/elements/1.1/"
   xmlns:cc="http://creativecommons.org/ns#"
   xmlns:rdf="http://www.w3.org/1999/02/22-rdf-syntax-ns#"
   xmlns:svg="http://www.w3.org/2000/svg"
   xmlns="http://www.w3.org/2000/svg"
   xmlns:xlink="http://www.w3.org/1999/xlink"
   xmlns:sodipodi="http://sodipodi.sourceforge.net/DTD/sodipodi-0.dtd"
   xmlns:inkscape="http://www.inkscape.org/namespaces/inkscape"
   width="1024"
   height="1024"
   viewBox="0 0 1024 1024"
   version="1.1"
   id="svg2"
   inkscape:version="0.91 r13725"
   sodipodi:docname="module-aos_invoices.svg">
  <metadata
     id="metadata21">
    <rdf:RDF>
      <cc:Work
         rdf:about="">
        <dc:format>image/svg+xml</dc:format>
        <dc:type
           rdf:resource="http://purl.org/dc/dcmitype/StillImage" />
        <dc:title>acc_invoices</dc:title>
      </cc:Work>
    </rdf:RDF>
  </metadata>
  <sodipodi:namedview
     pagecolor="#ffffff"
     bordercolor="#666666"
     borderopacity="1"
     objecttolerance="10"
     gridtolerance="10"
     guidetolerance="10"
     inkscape:pageopacity="0"
     inkscape:pageshadow="2"
     inkscape:window-width="1366"
     inkscape:window-height="703"
     id="namedview19"
     showgrid="false"
     inkscape:zoom="0.34766084"
     inkscape:cx="-114.42708"
     inkscape:cy="382.2923"
     inkscape:window-x="0"
     inkscape:window-y="0"
     inkscape:window-maximized="1"
     inkscape:current-layer="svg2" />
  <!-- Generator: Sketch 3.8.3 (29802) - http://www.bohemiancoding.com/sketch -->
  <title
     id="title4">acc_invoices</title>
  <desc
     id="desc6">Created with Sketch.</desc>
  <defs
     id="defs8">
    <rect
       id="path-1"
       x="0"
       y="0"
       width="19.200001"
       height="24" />
    <mask
       id="mask-2"
       maskContentUnits="userSpaceOnUse"
       maskUnits="objectBoundingBox"
       x="0"
       y="0"
       width="19.2"
       height="24"
       fill="white">
      <use
         xlink:href="#path-1"
         id="use12"
         x="0"
         y="0"
         width="100%"
         height="100%" />
    </mask>
  </defs>
  <use
     height="100%"
     width="100%"
     y="0"
     x="0"
     style="fill:none;fill-opacity:1;fill-rule:evenodd;stroke:#000000;stroke-width:3.99999597;stroke-opacity:1;stroke-miterlimit:4;stroke-dasharray:none"
     xlink:href="#path-1"
     id="Rectangle-807"
     transform="matrix(35.714286,0,0,35.714286,169.14284,83.428568)" />
  <path
     style="fill:#000000;fill-rule:evenodd;stroke:none;stroke-width:1;fill-opacity:1"
     inkscape:connector-curvature="0"
     id="£"
     d="m 354.28571,526.71428 c 0,-7.61785 2.42858,-14.23928 7.28572,-19.85714 4.85717,-5.61786 12.14281,-8.42857 21.85715,-8.42857 l 24,0 0,-61.71429 c 0,-18.09642 2.76177,-35.28571 8.28571,-51.57142 5.52382,-16.28572 13.95231,-30.61786 25.28571,-43 11.33339,-12.38215 25.52372,-22.23929 42.57143,-29.57143 17.04772,-7.33215 37.19036,-11 60.42857,-11 15.42864,0 29.38089,1.96428 41.85714,5.85714 12.47625,3.90357 23.619,9.33214 33.42857,16.28571 9.80957,6.95358 18.42853,15.14286 25.85714,24.57143 7.42861,9.42857 13.90475,19.57143 19.42857,30.42857 L 629.14285,401 c -8.00003,4.18928 -15.76186,6.04643 -23.28571,5.57143 -7.52386,-0.46429 -14.42854,-4.04643 -20.71429,-10.71429 -7.23814,-7.42857 -13.8095,-12.95357 -19.71427,-16.57143 -5.90479,-3.61785 -13.04759,-5.42857 -21.42858,-5.42857 -15.42864,0 -26.90472,5.38214 -34.42857,16.14286 -7.52385,10.76071 -11.28571,26.23928 -11.28571,46.42857 l 0,62 108.57143,0 0,33.71429 c 0,2.85714 -0.61893,5.57142 -1.85715,8.14285 -1.23821,2.57143 -2.9525,4.90357 -5.14285,7 -2.19036,2.10715 -4.76191,3.76072 -7.71429,5 -2.9525,1.25 -6.23807,1.85715 -9.85715,1.85715 l -83.99999,0 0,44.57142 c 0,11.42858 -2.14286,21.76072 -6.42857,31 -4.28575,9.23929 -10.04757,17.85715 -17.28572,25.85715 8.57146,-1.89286 17.14281,-3.39286 25.71429,-4.42857 8.57146,-1.03572 17.23802,-1.57143 25.99999,-1.57143 l 143.42858,0 0,36.28571 c 0,4.18929 -0.90464,8.475 -2.71429,12.85714 -1.80964,4.38215 -4.33332,8.33215 -7.57142,11.85715 -3.23822,3.53571 -7.19047,6.38214 -11.85716,8.57143 -4.66667,2.17857 -9.85709,3.28571 -15.57142,3.28571 l -272.57142,0 0,-53.14286 c 6.28575,-1.14285 12.33332,-2.96428 18.14285,-5.42857 5.80957,-2.46428 10.90474,-5.61786 15.28572,-9.42857 4.38096,-3.81071 7.90475,-8.38214 10.57143,-13.71429 2.66678,-5.33214 4,-11.525 4,-18.57142 l 0,-68 -53.14286,0 0,-27.42858 z" />
</svg>
